tools/download-figma-icons/icons/outlined-large/annual-report.svg

<svg xmlns="http://www.w3.org/2000/svg" width="64" height="64" fill="none" viewBox="0 0 64 64"><path fill="currentColor" fill-rule="evenodd" d="M56 51.5c0 1.379-1.121 2.5-2.5 2.5h-36a2.5 2.5 0 0 1-2.5-2.5v-46C15 4.121 16.121 3 17.5 3h36C54.879 3 56 4.121 56 5.5zm-7 6.934C49 59.849 47.879 61 46.5 61h-36C9.121 61 8 59.849 8 58.434V13.7c0-1.415 1.121-2.566 2.5-2.566H12V51.5c0 3.032 2.468 5.5 5.5 5.5H49zM53.5 0h-36A5.507 5.507 0 0 0 12 5.5v2.634h-1.5C7.468 8.134 5 10.631 5 13.7v44.734C5 61.503 7.468 64 10.5 64h36c3.032 0 5.5-2.497 5.5-5.566V57h1.5c3.032 0 5.5-2.468 5.5-5.5v-46C59 2.468 56.532 0 53.5 0m-3 8h-30a1.5 1.5 0 0 0 0 3h30a1.5 1.5 0 0 0 0-3m-15 8a1.5 1.5 0 0 1 0 3h-15a1.5 1.5 0 0 1 0-3zM44 35h-8v-8a1 1 0 0 0-1-1c-5.514 0-10 4.486-10 10s4.486 10 10 10 10-4.486 10-10a1 1 0 0 0-1-1m-5.996-11.001a1 1 0 0 1 1-.999C43.964 23 48 27.035 48 31.995a1 1 0 0 1-1 1L39 33a.997.997 0 0 1-1-1.001z" clip-rule="evenodd"/></svg>

<svg width="64" height="64" viewBox="0 0 64 64" fill="none" xmlns="http://www.w3.org/2000/svg">
<path fill-rule="evenodd" clip-rule="evenodd" d="M56 51.5C56 52.879 54.879 54 53.5 54H17.5C16.121 54 15 52.879 15 51.5V5.5C15 4.121 16.121 3 17.5 3H53.5C54.879 3 56 4.121 56 5.5V51.5ZM49 58.434C49 59.849 47.879 61 46.5 61H10.5C9.121 61 8 59.849 8 58.434V13.7C8 12.285 9.121 11.134 10.5 11.134H12V51.5C12 54.532 14.468 57 17.5 57H49V58.434ZM53.5 0H17.5C14.468 0 12 2.468 12 5.5V8.134H10.5C7.468 8.134 5 10.631 5 13.7V58.434C5 61.503 7.468 64 10.5 64H46.5C49.532 64 52 61.503 52 58.434V57H53.5C56.532 57 59 54.532 59 51.5V5.5C59 2.468 56.532 0 53.5 0ZM50.5 8H20.5C19.672 8 19 8.672 19 9.5C19 10.328 19.672 11 20.5 11H50.5C51.328 11 52 10.328 52 9.5C52 8.672 51.328 8 50.5 8ZM35.5 16C36.328 16 37 16.672 37 17.5C37 18.328 36.328 19 35.5 19H20.5C19.672 19 19 18.328 19 17.5C19 16.672 19.672 16 20.5 16H35.5ZM44 35H36V27C36 26.447 35.553 26 35 26C29.486 26 25 30.486 25 36C25 41.514 29.486 46 35 46C40.514 46 45 41.514 45 36C45 35.447 44.553 35 44 35ZM38.0039 23.999C38.0039 23.447 38.4519 23 39.0039 23C43.9649 23 47.9999 27.035 47.9999 31.995C47.9999 32.547 47.5529 32.995 47.0009 32.995L39.0009 33H38.9999C38.7339 33 38.4809 32.895 38.2929 32.707C38.1059 32.52 37.9999 32.265 37.9999 31.999L38.0039 23.999Z" fill="black"/>
</svg>
